source/svgs/gas_white.svg

<svg xmlns="http://www.w3.org/2000/svg" width="3" height="5.15" viewBox="0 0 3 5.15" preserveAspectRatio="xMinYMax"><path fill="#FFF" d="M.34 4.13c.1.15.22.28.38.41.16.13.31.24.47.34s.34.19.53.28l-.01-.01.01.01c-.15-.29-.22-.54-.22-.76 0-.11.03-.22.08-.33.06-.1.13-.19.22-.27.09-.08.19-.16.29-.24l.32-.26c.11-.1.2-.19.29-.29.09-.11.16-.23.21-.38.06-.14.09-.31.09-.48 0-.22-.03-.43-.09-.62s-.14-.36-.24-.5c-.1-.15-.22-.28-.38-.41-.16-.13-.31-.24-.47-.34S1.48.1 1.29 0l.01.01L1.28 0c.15.29.22.54.22.75 0 .11-.03.22-.08.33-.06.1-.13.19-.22.27-.08.09-.18.17-.29.24-.11.08-.21.17-.32.26-.11.09-.2.19-.29.29-.09.1-.16.23-.21.38C.03 2.67 0 2.83 0 3c0 .22.03.43.09.62.06.2.15.36.25.51z"/></svg>

<?xml version="1.0" encoding="utf-8"?>
<!-- Generator: Adobe Illustrator 18.1.0, SVG Export Plug-In . SVG Version: 6.00 Build 0)  -->
<svg version="1.1" id="Layer_1" xmlns="http://www.w3.org/2000/svg" xmlns:xlink="http://www.w3.org/1999/xlink" x="0px" y="0px"
	 width="3px" height="5.15px" viewBox="0 0 3 5.15" enable-background="new 0 0 3 5.15" xml:space="preserve" preserveAspectRatio="xMinYMax">
<g>
	<path fill="#FFFFFF" d="M0.34,4.13c0.1,0.15,0.22,0.28,0.38,0.41c0.16,0.13,0.31,0.24,0.47,0.34s0.34,0.19,0.53,0.28L1.71,5.15
		l0.01,0.01C1.57,4.87,1.5,4.62,1.5,4.4c0-0.11,0.03-0.22,0.08-0.33C1.64,3.97,1.71,3.88,1.8,3.8c0.09-0.08,0.19-0.16,0.29-0.24
		C2.19,3.48,2.3,3.39,2.41,3.3c0.11-0.1,0.2-0.19,0.29-0.29C2.79,2.9,2.86,2.78,2.91,2.63C2.97,2.49,3,2.32,3,2.15
		c0-0.22-0.03-0.43-0.09-0.62S2.77,1.17,2.67,1.03c-0.1-0.15-0.22-0.28-0.38-0.41C2.13,0.49,1.98,0.38,1.82,0.28S1.48,0.1,1.29,0
		l0.01,0.01L1.28,0C1.43,0.29,1.5,0.54,1.5,0.75c0,0.11-0.03,0.22-0.08,0.33C1.36,1.18,1.29,1.27,1.2,1.35
		C1.12,1.44,1.02,1.52,0.91,1.59C0.8,1.67,0.7,1.76,0.59,1.85C0.48,1.94,0.39,2.04,0.3,2.14c-0.09,0.1-0.16,0.23-0.21,0.38
		C0.03,2.67,0,2.83,0,3c0,0.22,0.03,0.43,0.09,0.62C0.15,3.82,0.24,3.98,0.34,4.13z"/>
</g>
</svg>
